X: 33806
T: Ray's Classic
R: polka
M: 2/4
K: Amajor
A>B AE|FA FE|FB BA/B/|cB Bc/B/|
A>B AE|FA FE|FB BA/B/|1 cA Ac/B/:|2 cA A/B/c/d/||
|:e>f eA|f2 f2|Bf Bf|g2 g2|
cg cg|a>agf|ec BA/B/|1 cA A/B/c/d/:|2 cA Ac/B/||

